X: 36227
T: Scully Casey's
R: jig
M: 6/8
K: Gdorian
B3 AGF|DFG FGA|B2B cBc|dfg fdc|
B3 AGF|DFG FGA|B2B cAF|AGF G2A:|
B3 cBc|dgg fdc|dgg gfg|agf g2f|
dgg bgg|a3 fdc|B3 cAF|AGF G2A:|

